svgs/solid/ballot.svg

<svg xmlns="http://www.w3.org/2000/svg" viewBox="0 0 448 512"><!--! Font Awesome Pro 6.2.0 by @fontawesome - https://fontawesome.com License - https://fontawesome.com/license (Commercial License) Copyright 2022 Fonticons, Inc. --><path d="M48 0C21.5 0 0 21.5 0 48V464c0 26.5 21.5 48 48 48H400c26.5 0 48-21.5 48-48V48c0-26.5-21.5-48-48-48H48zM64 112c0-8.8 7.2-16 16-16h32c8.8 0 16 7.2 16 16v32c0 8.8-7.2 16-16 16H80c-8.8 0-16-7.2-16-16V112zm0 128c0-8.8 7.2-16 16-16h32c8.8 0 16 7.2 16 16v32c0 8.8-7.2 16-16 16H80c-8.8 0-16-7.2-16-16V240zM80 352h32c8.8 0 16 7.2 16 16v32c0 8.8-7.2 16-16 16H80c-8.8 0-16-7.2-16-16V368c0-8.8 7.2-16 16-16zm112 32c0-8.8 7.2-16 16-16H368c8.8 0 16 7.2 16 16s-7.2 16-16 16H208c-8.8 0-16-7.2-16-16zm16-272H368c8.8 0 16 7.2 16 16s-7.2 16-16 16H208c-8.8 0-16-7.2-16-16s7.2-16 16-16zM192 256c0-8.8 7.2-16 16-16H368c8.8 0 16 7.2 16 16s-7.2 16-16 16H208c-8.8 0-16-7.2-16-16z"/></svg>

<svg xmlns="http://www.w3.org/2000/svg" viewBox="0 0 448 512"><!--! Font Awesome Pro 6.1.2 by @fontawesome - https://fontawesome.com License - https://fontawesome.com/license (Commercial License) Copyright 2022 Fonticons, Inc. --><path d="M384 0H64C28.65 0 0 28.65 0 64v384c0 35.35 28.65 64 64 64h320c35.35 0 64-28.65 64-64V64C448 28.65 419.3 0 384 0zM128 400C128 408.8 120.8 416 112 416h-32C71.25 416 64 408.8 64 400v-32C64 359.3 71.25 352 80 352h32C120.8 352 128 359.3 128 368V400zM128 272C128 280.8 120.8 288 112 288h-32C71.25 288 64 280.8 64 272v-32C64 231.3 71.25 224 80 224h32C120.8 224 128 231.3 128 240V272zM128 144C128 152.8 120.8 160 112 160h-32C71.25 160 64 152.8 64 144v-32C64 103.3 71.25 96 80 96h32C120.8 96 128 103.3 128 112V144zM368 400h-160C199.2 400 192 392.8 192 384s7.164-16 16-16h160c8.838 0 16 7.164 16 16S376.8 400 368 400zM368 272h-160C199.2 272 192 264.8 192 256s7.164-16 16-16h160C376.8 240 384 247.2 384 256S376.8 272 368 272zM368 144h-160C199.2 144 192 136.8 192 128s7.164-16 16-16h160C376.8 112 384 119.2 384 128S376.8 144 368 144z"/></svg>
